!!!!SEGMENT: pl-sa--179-a-v-9--002_anonim--msza-et-in-terra.krn
!!!cenid: 17xx:1640
!!!COM: Anonim
!!!COM-rismID:
!!!CDT:
!!!CNT:
!!!OPR: Msza
!!!OTL: Et in terra
!!!OMV: 002
!!!PDT:
!!!AGN: Sacred; Mass
!!!SMS-siglum: PL-SA
!!!SMS-shelfmark: 179/A V 9
!!!SMS-shelfwork: 001-002 M
!!!SMS-variant:
!!!SMS-altvar:
!!!NIFC-rismSourceID: 1001035886
!!!NIFC-islandoraID:
!!!URL-pdf-islandora:
!!!URL-scan: https://bc.bdsandomierz.pl/dlibra/publication/1514/edition/1482/content @EN{Scan on Cyfrowa Biblioteka Diecezjalna w Sandomierzu} @PL{Skany w portalu Cyfrowa Biblioteka Diecezjalna w Sandomierzu}
!!!ONB-nifc: UWAGA: części Mszy: 1. Kyrie, 2. Et in terra, 3. Patrem, 4. Sanctus, 5. Agnus Dei
!!!AIN: 1 alto 1 bass 1 soprn 1 tenor 2 violn
!!!key: D
**kern	**kern	**dynam	**kern	**text	**text	**kern	**kern	**text	**kern	**text	**text	**dynam
*group2	*group2	*	*group1	*	*	*group1	*group1	*	*group1	*	*	*
*part6	*part5	*part5	*part4	*part4	*part4	*part3	*part2	*part2	*part1	*part1	*part1	*part1
*staff6	*staff5	*	*staff4	*staff4	*staff4	*staff3	*staff2	*staff2	*staff1	*staff1	*staff1	*
*I"Violino 2do.	*I"Violino 1mo.	*	*I"Baſso	*	*	*I"[Tenor]	*I"Alto.	*	*I"Canto.	*	*	*
*I'vl 2	*I'vl 1	*	*I'B	*	*	*I'T	*I'A	*	*I'S	*	*	*
*Ivioln	*Ivioln	*	*Ibass	*	*	*Itenor	*Ialto	*	*Isoprn	*	*	*
*ICstr	*ICstr	*	*ICvox	*	*	*ICvox	*ICvox	*	*ICvox	*	*	*
*clefG2	*clefG2	*	*clefF4	*	*	*clefC4	*clefC3	*	*clefC1	*	*	*
*k[f#c#]	*k[f#c#]	*	*k[f#c#]	*	*	*k[f#c#]	*k[c#f#]	*	*k[f#c#]	*	*	*
*D:	*D:	*	*D:	*	*	*D:	*D:	*	*D:	*	*	*
*M4/4	*M4/4	*	*M4/4	*	*	*M4/4	*M4/4	*	*M4/4	*	*	*
*met(C.)	*met(c)	*	*met(C.)	*	*	*met(c)	*met(C.)	*	*met(C.)	*	*	*
=1	=1	=1	=1	=1	=1	=1	=1	=1	=1	=1	=1	=1
!LO:TX:t=P:problem=mixed beam	!LO:TX:t=P:problem=mixed beam	!	!	!	!	!	!	!	!	!	!	!
!LO:TX:b:rj:t=Gloria	!LO:TX:b:rj:t=Gloria	!	!	!	!	!	!	!	!	!	!	!
!LO:TX:a:rj:t=allo.	!LO:TX:a:rj:t=Moderato.	!	!LO:TX:a:rj:t=Moderato	!	!	!LO:TX:t=P::problem=brak partii, wg RISM "Notes on material&colon; Other parts presumably missing."	!LO:TX:a:rj:t=Moder&colon;	!	!LO:TX:a:rj:t=Moderato	!	!	!
16f#/LL	16d/LL	.	8D/	Et	.	1ryy	8a\	Et	8dd\	Et	.	.
16dd\	16ff#\	.	.	.	.	.	.	.	.	.	.	.
16dd\	16ff#\	.	8d\	in	.	.	8a\	in	8ff#\	in	.	.
16dd\JJ	16ff#\JJ	.	.	.	.	.	.	.	.	.	.	.
16a\LL	16cc#\LL	.	8c#\	ter-	.	.	8a\	ter-	8ee\	ter-	.	.
16cc#\	16aa\	.	.	.	.	.	.	.	.	.	.	.
16cc#\	16aa\	.	8A\	-ra	.	.	8a\	-ra	8cc#\	-ra	.	.
16ee\JJ	16cc#\JJ	.	.	.	.	.	.	.	.	.	.	.
8dd\L	16dd\LL	.	8B\	pax	.	.	8a\	pax	8dd\	pax	.	.
.	16a\	.	.	.	.	.	.	.	.	.	.	.
8ee\J	16ee\	.	8c#\	ho-	.	.	8a\	ho-	8ee\	ho-	.	.
.	16a\JJ	.	.	.	.	.	.	.	.	.	.	.
16dd\LL	16ff#\LL	.	8d\	-mi-	.	.	8a\	-mi-	8dd\	-mi-	.	.
16ff#\	16dd\	.	.	.	.	.	.	.	.	.	.	.
16ff#\	16a\	.	16D/	-ni-	.	.	16a\	-ni-	16dd\	-ni-	.	.
16ff#\JJ	16f#\JJ	.	16D/	-b(us)	.	.	16a\	-b(us)	16dd\	-b(us)	.	.
=2	=2	=2	=2	=2	=2	=2	=2	=2	=2	=2	=2	=2
16aa\LL	16e/LL	.	8C#/	bo-	.	1ryy	8a\	bo-	8ee\	bo-	.	.
16ee\	16a/	.	.	.	.	.	.	.	.	.	.	.
16ee\	16a/	.	8AA/	-nae	.	.	8a\	-nae	8cc#\	-nae	.	.
16ee\JJ	16a/JJ	.	.	.	.	.	.	.	.	.	.	.
16dd\LL	16f#/LL	.	8D/	vo-	.	.	8a\	vo-	8b\	vo-	.	.
16dd\	16dd/	.	.	.	.	.	.	.	.	.	.	.
16dd\	16dd/	.	8BB/	-lu(n)-	.	.	8b\	-lu(n)-	8dd\	-lu(n)-	.	.
16b\JJ	16dd/JJ	.	.	.	.	.	.	.	.	.	.	.
16a\LL	16cc#/LL	.	4E\	-ta-	.	.	8a\L	-ta-	(8cc#\L	-ta-	.	.
16cc#\	16a/	.	.	.	.	.	.	.	.	.	.	.
16g#X\	16b/	.	.	.	.	.	8g#X\J	.	8b\J)	.	.	.
16b\JJ	16g#X/JJ	.	.	.	.	.	.	.	.	.	.	.
!	!LO:LB:g=original	!	!	!	!	!	!	!	!	!	!	!
8a\L	8a\L	.	8AA/	-tis	.	.	8a\	-tis	8cc#\	-tis	.	.
8cc#\J	8ee\J	.	8r	.	.	.	8r	.	8r	.	.	.
=3	=3	=3	=3	=3	=3	=3	=3	=3	=3	=3	=3	=3
16cc#\LL	16ee\LL	.	0r	.	.	1ryy	0r	.	4r	.	.	.
16b\	16dd\	.	.	.	.	.	.	.	.	.	.	.
16b\	16dd\	.	.	.	.	.	.	.	.	.	.	.
16a\JJ	16cc#\JJ	.	.	.	.	.	.	.	.	.	.	.
!	!	!	!	!	!	!	!	!	!	!	!	!LO:DY:a:t=f.
8a/	8cc#\	.	.	.	.	.	.	.	8r	.	.	f
8r	8r	.	.	.	.	.	.	.	8ee\	lau-	.	.
!	!	!LO:DY:a:t=Po.	!	!	!	!	!	!	!	!	!	!
8A/L	8A/L	p	.	.	.	.	.	.	(16ee\LL	-da-	.	.
.	.	.	.	.	.	.	.	.	16dd\JJ)	.	.	.
8e/	8e/	.	.	.	.	.	.	.	(16dd\LL	-m(us)	.	.
.	.	.	.	.	.	.	.	.	16cc#\JJ)	.	.	.
8a/	8a/	.	.	.	.	.	.	.	8cc#\	te	.	.
8A/J	8A/J	.	.	.	.	.	.	.	16cc#\	be-	.	.
.	.	.	.	.	.	.	.	.	16cc#\	-ne-	.	.
!	!	!	!	!	!	!	!	!	!LO:LB:g=original	!	!	!
=4	=4	=4	=4	=4	=4	=4	=4	=4	=4	=4	=4	=4
8A/L	8A/L	.	.	.	.	1ryy	.	.	16cc#\LL	-di-	.	.
.	.	.	.	.	.	.	.	.	16b\JJ	.	.	.
8e/	8e/	.	.	.	.	.	.	.	16b\	-ci-	.	.
.	.	.	.	.	.	.	.	.	16a\	-m(us)	.	.
8a/	8a/	.	.	.	.	.	.	.	4a\	te	.	.
8A/J	8A/J	.	.	.	.	.	.	.	.	.	.	.
2r	2r	.	.	.	.	.	.	.	8ff#\	a-	.	.
.	.	.	.	.	.	.	.	.	8ee\	-do-	.	.
.	.	.	.	.	.	.	.	.	8.dd\	-ra-	.	.
.	.	.	.	.	.	.	.	.	16cc#\	-m(us)	.	.
=5	=5	=5	=5	=5	=5	=5	=5	=5	=5	=5	=5	=5
8r	8r	.	1r	.	.	1ryy	1r	.	8cc#\	te	.	.
8cc#\L	8ee\L	.	.	.	.	.	.	.	8cc#\	glo-	.	.
8dd\	8ff#\	.	.	.	.	.	.	.	8dd\	-ri-	.	.
8cc#\J	8ee\J	.	.	.	.	.	.	.	8cc#\	-fi-	.	.
4b\	4dd\	.	.	.	.	.	.	.	8.b\	-ca-	.	.
.	.	.	.	.	.	.	.	.	16a\	-m(us)	.	.
4a\	4cc#\	.	.	.	.	.	.	.	8a\	te	.	.
.	.	.	.	.	.	.	.	.	8r	.	.	.
!LO:LB:g=original	!	!	!	!	!	!	!	!	!	!	!	!
=6	=6	=6	=6	=6	=6	=6	=6	=6	=6	=6	=6	=6
!	!	!LO:DY:a:t=f.	!	!	!	!	!	!	!	!	!	!
16f#/LL	16dd\LL	f	8d\	gra-	.	1ryy	8a\	gra-	8dd\	gra-	.	.
16d/	16ff#\	.	.	.	.	.	.	.	.	.	.	.
16f#/	16ff#\	.	16D\	-ti-	.	.	16a\	-ti-	16dd\	-ti-	.	.
16a/JJ	16ff#\JJ	.	16D\	-as	.	.	16a\	-as	16dd\	-as	.	.
!	!	!	!LO:LB:g=original	!	!	!	!LO:LB:g=original	!	!	!	!	!
16dd\LL	16ff#\LL	.	8F#\	a-	.	.	8a\	a-	8dd\	a-	.	.
16dd\	16ff#\	.	.	.	.	.	.	.	.	.	.	.
16cc#\	16ee\	.	16A\	-gi-	.	.	16a\	-gi-	16cc#\	-gi-	.	.
16cc#\JJ	16ee\JJ	.	16A\	-m(us)	.	.	16a\	-m(us)	16cc#\	-m(us)	.	.
!	!LO:TX:t=P:problem=mixed beam	!	!	!	!	!	!	!	!	!	!	!
16dd\LL	16dd\LL	.	8d\	ti-	.	.	8a\	ti-	8dd\	ti-	.	.
16ff#\	16d/	.	.	.	.	.	.	.	.	.	.	.
16ff#\	16d/	.	8D/	-bi	.	.	8a\	-bi	8ff#\	-bi	.	.
16ff#\JJ	16d/JJ	.	.	.	.	.	.	.	.	.	.	.
!	!	!	!	!	!	!	!	!	!LO:LB:g=original	!	!	!
16ff#\LL	16dd\LL	.	8F#\	pro-	.	.	8a\	pro-	8ff#\	pro-	.	.
16ff#\	16dd\	.	.	.	.	.	.	.	.	.	.	.
16ee\	16cc#\	.	8A\	-pter	.	.	8a\	-pter	8ee\	-pter	.	.
16ee\JJ	16cc#\JJ	.	.	.	.	.	.	.	.	.	.	.
=7	=7	=7	=7	=7	=7	=7	=7	=7	=7	=7	=7	=7
16ff#\LL	16dd\LL	.	8d\	mag-	.	1ryy	8a\	mag-	8ff#\	mag-	.	.
16dd\	16ff#\	.	.	.	.	.	.	.	.	.	.	.
16dd\	16ff#\	.	8D/	-na(m)	.	.	8a\	-na(m)	8dd\	-na(m)	.	.
16dd\JJ	16ff#\JJ	.	.	.	.	.	.	.	.	.	.	.
16dd\LL	16ff#\LL	.	8F#\	glo-	.	.	8a\	glo-	8dd\	glo-	.	.
16dd\	16ff#\	.	.	.	.	.	.	.	.	.	.	.
16cc#\	16ee\	.	16A\	-ri-	.	.	16a\	-ri-	16cc#\	-ri-	.	.
16cc#\JJ	16ee\JJ	.	16A\	-am	.	.	16a\	-am	16cc#\	-a(m)	.	.
!LO:TX:t=P:problem=mixed beam	!LO:TX:t=P:problem=mixed beam	!	!	!	!	!	!	!	!	!	!	!
8dd\L	8ff#\L	.	8d\	tu-	.	.	8a\	tu-	8dd\	tu-	.	.
16d/L	16d/L|	.	8D/	-am	.	.	8a\	-am	8dd\	-am	.	.
16f#/JJ	16f#/JJ|	.	.	.	.	.	.	.	.	.	.	.
8g/L	8g/L|	.	4r	.	.	.	4r	.	4r	.	.	.
8a/J	8a/J|	.	.	.	.	.	.	.	.	.	.	.
=8	=8	=8	=8	=8	=8	=8	=8	=8	=8	=8	=8	=8
!	!	!LO:DY:a:t=Po.	!	!	!	!	!	!	!	!	!	!LO:DY:a:rj:t=f.
4d/	8d/L	p	00r	.	.	1ryy	8f#\	Do-	8a\	Do-	.	f
.	8g/	.	.	.	.	.	16g\	-mi-	16b\	-mi-	.	.
.	.	.	.	.	.	.	16g\	-ne	16b\	-ne	.	.
4d/	8f#/	.	.	.	.	.	8f#\	De-	8a\	De-	.	.
.	8g/J	.	.	.	.	.	8g\	-us	8b\	-us	.	.
4d/	8f#/L	.	.	.	.	.	8f#\	rex	8a\	rex	.	.
.	8g/	.	.	.	.	.	8g\	cae-	8b\	Cae-	.	.
4r	8a/	.	.	.	.	.	8g\	-le-	8b\	-le-	.	.
.	8f#/J	.	.	.	.	.	8f#\	-stis	8a\	-stis	.	.
!	!	!	!	!	!	!	!LO:LB:g=original	!	!	!	!	!
=9	=9	=9	=9	=9	=9	=9	=9	=9	=9	=9	=9	=9
8a\L	8f#/L	.	.	.	.	1ryy	8f#\	De-	8a\	De-	.	.
8b\	8g/	.	.	.	.	.	8g\	-us	8b\	-us	.	.
8ccn\	8a/	.	.	.	.	.	8a\	Pa-	8ccn\	Pa-	.	.
8cc\J	8a/J	.	.	.	.	.	16a\	-ter	16cc\	-ter	.	.
.	.	.	.	.	.	.	16a\	om-	16cc\	om-	.	.
!	!	!	!	!	!	!	!	!	!LO:LB:g=original	!	!	!
8cc\L	8a/L	.	.	.	.	.	8a\	-ni-	8cc\	-ni-	.	.
8a\J	8f#/J	.	.	.	.	.	8f#\	-po-	8a\	-po-	.	.
4b\	4g/	.	.	.	.	.	4g\	-te(n)s	4b\	-tens	.	.
!	!LO:LB:g=original	!	!	!	!	!	!	!	!	!	!	!
=10	=10	=10	=10	=10	=10	=10	=10	=10	=10	=10	=10	=10
4e/	8g#X/L	.	.	.	.	1ryy	8g#X\	Do-	0r	.	.	.
.	8a/	.	.	.	.	.	16a\	-mi-	.	.	.	.
.	.	.	.	.	.	.	16a\	-ne	.	.	.	.
4e/	8g#/	.	.	.	.	.	8g#X\	fi-	.	.	.	.
.	8a/J	.	.	.	.	.	8a\	-li	.	.	.	.
4e/	8g#/L	.	.	.	.	.	8g#\	u-	.	.	.	.
.	8a/	.	.	.	.	.	8a\	-ni-	.	.	.	.
4r	8a/	.	.	.	.	.	8a\	-ge-	.	.	.	.
.	8g#/J	.	.	.	.	.	16g#X\	-ni-	.	.	.	.
.	.	.	.	.	.	.	16g#\	-te	.	.	.	.
=11	=11	=11	=11	=11	=11	=11	=11	=11	=11	=11	=11	=11
8b\L	8g#X/L	.	.	.	.	1ryy	8g\	Je-	.	.	.	.
8cc#X\	8a/	.	.	.	.	.	8a\	-su	.	.	.	.
*	*	*	*	*	*	*	*	*ij	*	*	*	*
8dd\	8b/	.	.	.	.	.	8b\	Je-	.	.	.	.
8dd\J	8b/J	.	.	.	.	.	8b\	-su	.	.	.	.
*	*	*	*	*	*	*	*	*Xij	*	*	*	*
!	!	!	!	!	!	!	!LO:LB:g=original	!	!	!	!	!
8dd\L	8b/L	.	.	.	.	.	4b\	Chri-	.	.	.	.
8b\J	8g#X/J	.	.	.	.	.	.	.	.	.	.	.
4cc#\	4a/	.	.	.	.	.	4a\	-ste	.	.	.	.
=12	=12	=12	=12	=12	=12	=12	=12	=12	=12	=12	=12	=12
8A/L	8A/L	.	1r	.	.	1ryy	1r	.	8ee\	Do-	.	.
8A/	8A/	.	.	.	.	.	.	.	16ff#\	-mi-	.	.
.	.	.	.	.	.	.	.	.	16ff#\	-ne	.	.
8A/	8A/	.	.	.	.	.	.	.	8ee\	[[Fi-	De-	.
8A/J	8A/J	.	.	.	.	.	.	.	8ff#\	-li	-us	.
8A/L	8A/L	.	.	.	.	.	.	.	8ee\	u-	Ag-	.
8A/	8A/	.	.	.	.	.	.	.	8ff#\	-ni-	-nus	.
8A/	8A/	.	.	.	.	.	.	.	8ff#\	-ge-	De-	.
8A/J	8A/J	.	.	.	.	.	.	.	8ee\	-ni-	-i	.
!LO:LB:g=original	!	!	!	!	!	!	!	!	!	!	!	!
=13	=13	=13	=13	=13	=13	=13	=13	=13	=13	=13	=13	=13
!	!	!LO:DY:a:rj:t=f.	!	!	!	!	!	!	!	!	!	!
16dd\LL	16ff#\LL	f	8d\	Fi-	.	1ryy	8a\	fi-	8ff#\	-te	fi-	.
16dd\	16ff#\	.	.	.	.	.	.	.	.	.	.	.
16cc#\	16ee\	.	16A\	-li-	.	.	16a\	-li-	16ee\	Je-	-li-	.
16cc#\JJ	16ee\JJ	.	16A\	-us	.	.	16a\	-us	16ee\	-su	-us	.
*	*	*	*	*ij	*	*	*	*ij	*	*ij	*	*
16dd\LL	16dd\LL	.	8B\	Fi-	.	.	8f#\	fi-	8dd\	Je-	fi-	.
16dd\	16dd\	.	.	.	.	.	.	.	.	.	.	.
16ee\	16gg\	.	16G\	-li-	.	.	16b\	-li-	16gg\	-su	-li-	.
*	*	*	*	*	*	*	*	*	*	*Xij	*	*
16ee\JJ	16gg\JJ	.	16G\	-us	.	.	16b\	-us	16gg\	Chri-	-us	.
*	*	*	*	*Xij	*	*	*	*Xij	*	*	*	*
16dd\LL	16ff#\LL	.	4A\	Pat-	.	.	4a\	Pat-	8ff#\L	.	Pat-	.
16ff#\	16dd\	.	.	.	.	.	.	.	.	.	.	.
16cc#\	16a\	.	.	.	.	.	.	.	8ee\J	.	.	.
16ee\JJ	16cc#\JJ	.	.	.	.	.	.	.	.	.	.	.
!LO:TX:t=P:problem=mixed beam	!	!	!	!	!	!	!	!	!	!	!	!
8dd\L	16dd/LL	.	4D\	-ris	.	.	4a\	-ris	4dd\	-ste]]	-ris	.
.	16a/	.	.	.	.	.	.	.	.	.	.	.
8d/J	16f#/	.	.	.	.	.	.	.	.	.	.	.
.	16d/JJ	.	.	.	.	.	.	.	.	.	.	.
!	!	!	!LO:LB:g=original	!	!	!	!	!	!	!	!	!
=14	=14	=14	=14	=14	=14	=14	=14	=14	=14	=14	=14	=14
!	!	!	!LO:TX:t=1	!	!	!	!	!	!	!	!	!
4b\	4dd\	.	1r	.	.	1ryy	1r	.	1r	.	.	.
4ccn\	4ee\	.	.	.	.	.	.	.	.	.	.	.
8b/	(8dd\	.	.	.	.	.	.	.	.	.	.	.
4g/	4b\)	.	.	.	.	.	.	.	.	.	.	.
8a/	8ccn\	.	.	.	.	.	.	.	.	.	.	.
=15	=15	=15	=15	=15	=15	=15	=15	=15	=15	=15	=15	=15
!	!	!	!LO:TX:t=2	!	!	!	!	!	!	!	!	!
8b\L	8dd\L	.	0r	.	.	1ryy	2r	.	2r	.	.	.
8ccn\	8ee\	.	.	.	.	.	.	.	.	.	.	.
8b\	8dd\	.	.	.	.	.	.	.	.	.	.	.
!	!LO:SIC:v:s=8ccn\J	!	!	!	!	!	!	!	!	!	!	!
8a\J	8cc#\J	.	.	.	.	.	.	.	.	.	.	.
!	!	!LO:DY:a	!	!	!	!	!	!	!LO:LB:g=original	!	!	!
4g/	4b\	p	.	.	.	.	4b\	qvi	4dd\	qvi	.	.
4ee\	4ccn\	.	.	.	.	.	4ccn\	tol-	4ee\	tol-	.	.
=16	=16	=16	=16	=16	=16	=16	=16	=16	=16	=16	=16	=16
8dd\	(>8b/	.	.	.	.	1ryy	4b\	-lis	4dd\	-lis	.	.
4b\	4g/	.	.	.	.	.	.	.	.	.	.	.
.	.	.	.	.	.	.	8r	.	8r	.	.	.
8ccn\	8a/)	.	.	.	.	.	8a\	pec-	8ccn\	pec-	.	.
8dd\L	8b\L	.	.	.	.	.	8b\	-ca-	8dd\	-ca-	.	.
8ee\	8ccn\	.	.	.	.	.	8ccn\	-ta	8ee\	-ta	.	.
8dd\	8b\	.	.	.	.	.	8b\L	mun-	8dd\L	mun-	.	.
8ccn\J	8a\J	.	.	.	.	.	8a\J	.	8ccn\J	.	.	.
!	!LO:LB:g=original	!	!	!	!	!	!	!	!	!	!	!
=17	=17	=17	=17	=17	=17	=17	=17	=17	=17	=17	=17	=17
8b/	8g/	.	8r	.	.	1ryy	4g\	-di	4b\	-di	.	.
4b/	4dd\	.	16G\	mi-	.	.	.	.	.	.	.	.
.	.	.	16G\	-se-	.	.	.	.	.	.	.	.
.	.	.	8BB/	-re-	.	.	4r	.	4r	.	.	.
8a/	8ccn\	.	8D/	-re	.	.	.	.	.	.	.	.
4g/	4b\	.	8G\	no-	.	.	4r	.	2r	.	.	.
.	.	.	8GG/	-bis	.	.	.	.	.	.	.	.
!	!	!	!	!	!	!	!LO:LB:g=original	!	!	!	!	!
8r	8r	.	4r	.	.	.	8g\	mi-	.	.	.	.
8g/	8b\	.	.	.	.	.	8b\	-se-	.	.	.	.
=18	=18	=18	=18	=18	=18	=18	=18	=18	=18	=18	=18	=18
2a/	4a/	.	1r	.	.	1ryy	4a\	-re-	1r	.	.	.
*	*2\right	*	*	*	*	*	*	*	*	*	*	*
.	2dd\	.	.	.	.	.	4dd\	-re	.	.	.	.
*	*	*	*	*	*	*	*2\right	*	*	*	*	*
2g/	.	.	.	.	.	.	2g\	no-	.	.	.	.
.	4cc#X\	.	.	.	.	.	.	.	.	.	.	.
=19	=19	=19	=19	=19	=19	=19	=19	=19	=19	=19	=19	=19
8f#/	8dd\	.	8r	.	.	1ryy	4f#\	-bis	2r	.	.	.
4f#/	4a/	.	16D\	mi-	.	.	.	.	.	.	.	.
.	.	.	16D\	-se-	.	.	.	.	.	.	.	.
.	.	.	8F#\	-re-	.	.	4r	.	.	.	.	.
8e/	8g/	.	8A\	-re	.	.	.	.	.	.	.	.
4d/	4f#/	.	8d\	no-	.	.	2r	.	4a\	qvi	.	.
.	.	.	8D/	-bis	.	.	.	.	.	.	.	.
4g/	4g/	.	4r	.	.	.	.	.	4b\	tol-	.	.
=20	=20	=20	=20	=20	=20	=20	=20	=20	=20	=20	=20	=20
8f#/	8f#/	.	1r	.	.	1ryy	00r	.	8a\	-lis	.	.
4d/	4d/	.	.	.	.	.	.	.	8f#/	pec-	.	.
.	.	.	.	.	.	.	.	.	8f#/	-ca-	.	.
8e/	8e/	.	.	.	.	.	.	.	8g/	-ta	.	.
!LO:LB:g=original	!	!	!	!	!	!	!	!	!	!	!	!
8f#/L	8f#/L	.	.	.	.	.	.	.	8a\L	mun-	.	.
8g/	8g/	.	.	.	.	.	.	.	8b\J	.	.	.
8f#/	8f#/	.	.	.	.	.	.	.	(16a\LL	.	.	.
.	.	.	.	.	.	.	.	.	16b\JJ)	.	.	.
8e/J	8e/J	.	.	.	.	.	.	.	(16a\LL	.	.	.
.	.	.	.	.	.	.	.	.	16g\JJ)	.	.	.
=21	=21	=21	=21	=21	=21	=21	=21	=21	=21	=21	=21	=21
8d/L	8d/L	.	8.d\	ſus-	.	1ryy	.	.	4f#/	-di	.	.
8f#/	8f#/	.	.	.	.	.	.	.	.	.	.	.
.	.	.	16D/	-ci-	.	.	.	.	.	.	.	.
8a/	8a/	.	4D/	-pe	.	.	.	.	4r	.	.	.
8dd/J	8dd/J	.	.	.	.	.	.	.	.	.	.	.
!	!	!	!	!	!	!	!	!	!LO:LB:g=original	!	!	!
8d/	8d/	.	4F#\	[[de	ſus-	.	.	.	2r	.	.	.
4a\	4f#/	.	.	.	.	.	.	.	.	.	.	.
.	.	.	8F#\	-pre-	ci-	.	.	.	.	.	.	.
8cc#\	8g/	.	8G\	-ca]]	-pe	.	.	.	.	.	.	.
!	!	!	!LO:LB:g=original	!	!	!	!	!	!	!	!	!
=22	=22	=22	=22	=22	=22	=22	=22	=22	=22	=22	=22	=22
8ccn\L	8a/	.	4A\	de-	.	1ryy	.	.	0r	.	.	.
8cc\	4a/	.	.	.	.	.	.	.	.	.	.	.
8cc\	.	.	4A\	-pre-	.	.	.	.	.	.	.	.
8cc\J	8a/	.	.	.	.	.	.	.	.	.	.	.
8cc\L	8a/L	.	8A\	-ca-	.	.	.	.	.	.	.	.
8ee\	8ccn/	.	8cn\	-ti-	.	.	.	.	.	.	.	.
8dd\	8b/	.	8B\	-o-	.	.	.	.	.	.	.	.
8cc\J	8a/J	.	8A\	-ne(m)	.	.	.	.	.	.	.	.
=23	=23	=23	=23	=23	=23	=23	=23	=23	=23	=23	=23	=23
!LO:SIC:v:s=4ccn\	!	!	!	!	!	!	!	!	!	!	!	!
4cc#\	4a/	.	4A\	nos-	.	1ryy	.	.	.	.	.	.
4b\	4g/	.	4G\	-tra(m)	.	.	.	.	.	.	.	.
4b\	4dd\	.	2r	.	.	.	.	.	.	.	.	.
4ccn\	4ee\	.	.	.	.	.	.	.	.	.	.	.
=24	=24	=24	=24	=24	=24	=24	=24	=24	=24	=24	=24	=24
!LO:TX:t=raz	!	!	!	!	!	!	!	!	!	!	!	!
16b\LL	8dd\L	.	1r	.	.	1ryy	4b\	qvi	4dd\	qvi	.	.
16dd\JJ	.	.	.	.	.	.	.	.	.	.	.	.
4ee\	8b\J	.	.	.	.	.	.	.	.	.	.	.
.	4ccn\	.	.	.	.	.	4ccn\	ſe-	4ee\	ſe-	.	.
8dd\	.	.	.	.	.	.	.	.	.	.	.	.
4b\	8b/	.	.	.	.	.	4b\	-des	4dd\	-des	.	.
.	4g/	.	.	.	.	.	.	.	.	.	.	.
4ccn\	.	.	.	.	.	.	8r	.	8r	.	.	.
.	8a/	.	.	.	.	.	8a\	ad	8ccn\	ad	.	.
!	!LO:LB:g=original	!	!	!	!	!	!	!	!	!	!	!
=25	=25	=25	=25	=25	=25	=25	=25	=25	=25	=25	=25	=25
8dd\L	8b\L	.	2r	.	.	1ryy	8b\	dex-	8dd\	dex-	.	.
!	!	!	!	!	!	!	!LO:SIC:v:s=16ccn\	!	!	!	!	!
8ee\	8ccn\	.	.	.	.	.	16cc#\	-te-	16ee\	-te-	.	.
!	!	!	!	!	!	!	!LO:SIC:v:s=16ccn\	!	!	!	!	!
.	.	.	.	.	.	.	16cc#\	-ra(m)	16ee\	-ra(m)	.	.
8dd\	8b\	.	.	.	.	.	(8b\L	Pat-	(8dd\L	Pa-	.	.
8ccn\J	8a\J	.	.	.	.	.	8a\J)	.	8ccn\J)	.	.	.
!	!	!LO:DY:a:rj:t=f.	!	!	!	!	!	!	!	!	!	!
8b\L	8g\L	f	4r	.	.	.	4g\	-ris	4b\	-tris	.	.
8b\	8dd\	.	.	.	.	.	.	.	.	.	.	.
8b\	8dd\	.	8G\	mi-	.	.	8g\	mi-	8dd\	mi-	.	.
8b\J	8dd\J	.	8B\	-se-	.	.	8g\	-se-	8dd\	-se-	.	.
=26	=26	=26	=26	=26	=26	=26	=26	=26	=26	=26	=26	=26
!LO:TX:t=c	!	!	!	!	!	!	!	!	!	!	!	!
4ccn\	4ee\	.	4cn\	-re-	.	1ryy	4g\	-re-	4ee\	-re-	.	.
4b\	[4dd\	.	4G\	-re	.	.	4g\	-re	4dd\	-re	.	.
*	*	*	*2\right	*	*	*	*	*	*	*	*	*
!	!	!	!	!	!	!	!LO:LB:g=original	!	!	!	!	!
4a/	16dd\LL]	.	2D\	no-	.	.	(4g\	no-	(4.dd\	no-	.	.
.	16a\	.	.	.	.	.	.	.	.	.	.	.
.	16b\	.	.	.	.	.	.	.	.	.	.	.
.	16ccn\JJ	.	.	.	.	.	.	.	.	.	.	.
4f#/	8dd\L	.	.	.	.	.	4f#\)	.	.	.	.	.
.	8ccn\J	.	.	.	.	.	.	.	8ccn\)	.	.	.
=27	=27	=27	=27	=27	=27	=27	=27	=27	=27	=27	=27	=27
4g/	4b\	.	4G\	-bis	.	1ryy	4g\	-bis	4b\	-bis	.	.
8b/L	8dd\L	.	4r	.	.	.	4r	.	4r	.	.	.
8b/J	8dd\J	.	.	.	.	.	.	.	.	.	.	.
8ccn\L	8ee\L	.	2r	.	.	.	2r	.	2r	.	.	.
8cc\	8ee\	.	.	.	.	.	.	.	.	.	.	.
8a\	8ff#\	.	.	.	.	.	.	.	.	.	.	.
8a\J	8ff#\J	.	.	.	.	.	.	.	.	.	.	.
!LO:LB:g=original	!	!	!	!	!	!	!	!	!	!	!	!
=28	=28	=28	=28	=28	=28	=28	=28	=28	=28	=28	=28	=28
4b\	4gg\	.	2r	.	.	1ryy	0r	.	0r	.	.	.
4r	4r	.	.	.	.	.	.	.	.	.	.	.
2r	2r	.	4r	.	.	.	.	.	.	.	.	.
.	.	.	8r	.	.	.	.	.	.	.	.	.
.	.	.	8G\	tu	.	.	.	.	.	.	.	.
!	!	!	!LO:LB:g=original	!	!	!	!	!	!	!	!	!
=29	=29	=29	=29	=29	=29	=29	=29	=29	=29	=29	=29	=29
2r	2r	.	8F#\	ſo-	.	1ryy	.	.	.	.	.	.
.	.	.	8D\	-lus	.	.	.	.	.	.	.	.
.	.	.	8r	.	.	.	.	.	.	.	.	.
.	.	.	8G\	tu	.	.	.	.	.	.	.	.
!	!	!LO:DY:a:t=Po	!	!	!	!	!	!	!	!	!	!
8r	8r	p	8F#\	ſo-	.	.	.	.	.	.	.	.
4f#/	4a/	.	8D\	-lus	.	.	.	.	.	.	.	.
.	.	.	8A\	Do-	.	.	.	.	.	.	.	.
8e/	8g/	.	8AA/	-mi-	.	.	.	.	.	.	.	.
!	!	!	!	!	!	!	!	!	!LO:LB:g=original	!	!	!
=30	=30	=30	=30	=30	=30	=30	=30	=30	=30	=30	=30	=30
8d/L	8f#/L	.	4D\	-n(us)	.	1ryy	1r	.	8r	.	.	.
16f#/L	16a/L	.	.	.	.	.	.	.	8dd\	tu	.	.
16e/JJ	16g/JJ	.	.	.	.	.	.	.	.	.	.	.
8d/L	8f#/L	.	4r	.	.	.	.	.	8dd\	ſo-	.	.
8f#/J	8a/J	.	.	.	.	.	.	.	16dd\	-lus	.	.
.	.	.	.	.	.	.	.	.	16dd\	al-	.	.
4g/	4b\	.	2r	.	.	.	.	.	(16b\LL	-tiſ-	.	.
.	.	.	.	.	.	.	.	.	16g\JJ)	.	.	.
.	.	.	.	.	.	.	.	.	16ee\	-si-	.	.
.	.	.	.	.	.	.	.	.	16dd\	-m(us)	.	.
8r	4cc#X\	.	.	.	.	.	.	.	(16cc#X\LL	Je-	.	.
.	.	.	.	.	.	.	.	.	16a\	.	.	.
8g/	.	.	.	.	.	.	.	.	16ff#\	.	.	.
.	.	.	.	.	.	.	.	.	16ee\JJ)	.	.	.
=31	=31	=31	=31	=31	=31	=31	=31	=31	=31	=31	=31	=31
4f#/	4dd\	.	2r	.	.	1ryy	2r	.	(16dd\LL	.	.	.
.	.	.	.	.	.	.	.	.	16b\	.	.	.
.	.	.	.	.	.	.	.	.	16gg\	.	.	.
.	.	.	.	.	.	.	.	.	16ff#\JJ)	.	.	.
4a/	4gg\	.	.	.	.	.	.	.	(16ee\LL	.	.	.
.	.	.	.	.	.	.	.	.	16a\JJ)	.	.	.
.	.	.	.	.	.	.	.	.	(16aa\LL	-su	.	.
.	.	.	.	.	.	.	.	.	16gg\JJ)	.	.	.
8dd\L	8ff#\L	.	4r	.	.	.	4r	.	8ff#\	Chri-	.	.
8cc#\J	8ee\J	.	.	.	.	.	.	.	8ee\	-ste	.	.
8r	8r	.	8r	.	.	.	8r	.	8r	.	.	.
8dd\	8ff#\	.	8d\	Cu(m)	.	.	8a\	Cum	8ff#\	Cum	.	.
=32	=32	=32	=32	=32	=32	=32	=32	=32	=32	=32	=32	=32
!	!	!LO:DY:a:rj:t=f.	!	!	!	!	!	!	!	!	!	!
16ee\LL	16ee\LL	f	8c#\	ſan-	.	1ryy	8a\	ſan-	8ee\	ſan-	.	.
16ee\	16aa\	.	.	.	.	.	.	.	.	.	.	.
16dd\	16aa\	.	8A\	-cto	.	.	8a\	-cto	8cc#\	-cto	.	.
16cc#\JJ	16aa\JJ	.	.	.	.	.	.	.	.	.	.	.
*	*	*	*	*ij	*	*	*	*ij	*	*	*	*
16dd\LL	16aa\LL	.	8B\	ſan-	.	.	8a\	ſan-	8dd\	San-	.	.
16dd\	16aa\	.	.	.	.	.	.	.	.	.	.	.
16ee\	16aa\	.	8c#\	-cto	.	.	8a\	-cto	8ee\	-cto	.	.
*	*	*	*	*Xij	*	*	*	*Xij	*	*	*	*
16ee\JJ	16aa\JJ	.	.	.	.	.	.	.	.	.	.	.
16dd\LL	16ff#\LL	.	8.d\	ſpi-	.	.	8.a\	ſpi-	8.ff#\	ſpi-	.	.
16ff#\	16dd\	.	.	.	.	.	.	.	.	.	.	.
16ff#\	16a\	.	.	.	.	.	.	.	.	.	.	.
16ff#\JJ	16f#\JJ	.	16D/	-ri-	.	.	16a\	-ri-	16ff#\	-ri-	.	.
!	!LO:LB:g=original	!	!	!	!	!	!	!	!	!	!	!
!	!LO:TX:t=P:problem=mixed beam	!	!	!	!	!	!	!	!	!	!	!
16ff#\LL	16d/LL	.	8D\	-tu	.	.	8a\	-tu	8ff#\	-tu	.	.
16dd\	16dd\	.	.	.	.	.	.	.	.	.	.	.
16dd\	16dd\	.	8F#\	in	.	.	8a\	in	8dd\	in	.	.
16a\JJ	16dd\JJ	.	.	.	.	.	.	.	.	.	.	.
!	!	!	!	!	!	!	!	!	!LO:LB:g=original	!	!	!
=33	=33	=33	=33	=33	=33	=33	=33	=33	=33	=33	=33	=33
16b\LL	16b\LL	.	8G\	glo-	.	1ryy	8g\	glo-	8b\	glo-	.	.
16b\	16dd\	.	.	.	.	.	.	.	.	.	.	.
16a\	16dd\	.	16F#\	-ri-	.	.	16a\	-ri-	16dd\	-ri-	.	.
16a\JJ	16dd\JJ	.	16F#\	-a	.	.	16a\	-a	16dd\	-a	.	.
!	!	!	!LO:LB:g=original	!	!	!	!	!	!	!	!	!
16b\LL	16gg\LL	.	8E\	De-	.	.	8g\	De-	(16gg\LL	De-	.	.
16b\	16ff#\	.	.	.	.	.	.	.	16ff#\JJ)	.	.	.
16b\	16ee\	.	8F#\	-i	.	.	8g\	-i	(16ee\LL	-i	.	.
16b\JJ	16dd\JJ	.	.	.	.	.	.	.	16dd\JJ)	.	.	.
!	!	!	!	!	!	!	!LO:LB:g=original	!	!	!	!	!
16cc#\LL	16cc#\LL	.	8A\	Pat-	.	.	8g\	Pat-	8cc#\	Pat-	.	.
16cc#\	16a\	.	.	.	.	.	.	.	.	.	.	.
16dd\	16ff#\	.	8D\	-ris	.	.	8f#\	-ris	8dd\	-ris	.	.
16dd\JJ	16dd\JJ	.	.	.	.	.	.	.	.	.	.	.
16cc#\LL	16ee\LL	.	4A\	A-	.	.	4a\	A-	4ee\	A-	.	.
16cc#\	16cc#\	.	.	.	.	.	.	.	.	.	.	.
16cc#\	16a\	.	.	.	.	.	.	.	.	.	.	.
16cc#\JJ	16cc#\JJ	.	.	.	.	.	.	.	.	.	.	.
!LO:LB:g=original	!	!	!	!	!	!	!	!	!	!	!	!
=34	=34	=34	=34	=34	=34	=34	=34	=34	=34	=34	=34	=34
16dd\LL	16dd/LL	.	4D/	-men	.	1ryy	4a\	-men	4ff#\	-men	.	.
16ff#\	16a/	.	.	.	.	.	.	.	.	.	.	.
16ff#\	16f#/	.	.	.	.	.	.	.	.	.	.	.
16ff#\JJ	16d/JJ	.	.	.	.	.	.	.	.	.	.	.
16ee\LL	16aa\LL	.	4AA/	A-	.	.	4a\	A-	4cc#\	A-	.	.
16cc#\	16ee\	.	.	.	.	.	.	.	.	.	.	.
16cc#\	16cc#\	.	.	.	.	.	.	.	.	.	.	.
16cc#\JJ	16a\JJ	.	.	.	.	.	.	.	.	.	.	.
!LO:TX:t=P:problem=mixed beam	!	!	!	!	!	!	!	!	!	!	!	!
16dd\LL	16d/LL	.	2D/	-men	.	.	2a\	-men	4dd\	-men	.	.
16d/	16f#/	.	.	.	.	.	.	.	.	.	.	.
16f#/	16a/	.	.	.	.	.	.	.	.	.	.	.
16a/JJ	16dd/JJ	.	.	.	.	.	.	.	.	.	.	.
4dd\	4ff# 4a 4d/	.	.	.	.	.	.	.	4r	.	.	.
==	==	==	==	==	==	==	==	==	==	==	==	==
*-	*-	*-	*-	*-	*-	*-	*-	*-	*-	*-	*-	*-
!!!system-decoration: [(g1)][(g2)]
!!!RDF**kern: > = above
!!!RDF**kern: | = vertical stroke
!!!ENC: Kamil Watkowski
!!!END: 2020-12-15
!!!ENC: Marta Lawrence
!!!END: 2022-03-24
